X:1
T:Title
%%score ( 1 2 ) { 3 | 4 }
L:1/8
Q:1/4=95
M:6/8
K:C
V:1 treble nm="Grand Piano, Staff 1"
V:2 treble 
V:3 treble nm="Choir Pad, Staff 2"
V:4 bass 
V:1
 [EG][EG]>[FA] [EG][Ac][GB] | [FA] [EG]2- [EG] [DF]2 | [DF] [CE]2 [CE]/[CE]/[B,D][A,C] | %3
w: By~Friedrich~Silcher~(1789\-1860) * * * * *|||
 [B,D] [CE]2- [CE]3/2 z/ z | [EG][EG]>[FA] [EG][Ac][GB] | [FA] [EG]2- [EG] [DF]2 | %6
w: |||
 [DF] [CE]2 [CE]/[CE]/[EG][DF] | [B,D] C2- C3/2 z/ z | [CE][B,D]>[CE] [B,D][B,G][B,D] | %9
w: |||
 [DG] [GB]2- [GB] [EA]2 | [EA] [DG]2 [DG]^FG | [DA] G2- [EG-][FG-][E-G]/E/ | %12
w: |||
 [DG][EG]>[FA] [EG][Ac][GB] | [FA] [EG]2 [Ge] [Fd]2 | [Dd] [Ec]2 [Ec]BA | [FB] [Ec]2- [Ec]3- | %16
w: ||||
 [Ec]3 z3 |] %17
w: |
V:2
 x6 | x6 | x6 | x6 | x6 | x6 | x6 | x6 | x6 | x6 | z3 z D2 | z D2 z3 | x6 | x6 | z3 z F2 | x6 | %16
 x6 |] %17
V:3
 CC>C CA,B, | C C2- C[K:bass] A,2 | A, G,2 G,/G,/ G,2 | G, G,2- G,3/2 z/ z | CC>C CA,B, | %5
 C C2- C[K:bass] A,2 | A, G,2 G,/G,/ G,2 | F, E,2- E,3/2 z/ z | G,G,>G, G,G,G, | %9
 B,[K:treble] D2- D C2 | C B,2[K:bass] B,A,B, | C B,2[K:treble] CDC | B,C>D D[K:bass]A,B, | %13
 C C2 G, A,2 | A, G,2 G, D2 | G, G,2- G,3- | G,3 z3 |] %17
V:4
 C,C,>C, C, C,2 | C, C,2- C, F,2 | .F,3 z G,,2 | G,, C,2- C,3/2 z/ z | C,C,>C, C, C,2 | %5
 C, C,2- C, F,2 | .F,3 z G,,2 | G,, C,2- C,3/2 z/ z | .C,3 z3 | G, G,2- G, C,2 | C, D,2 D, D,2 | %11
 D, G,2- G,2- G,/ z/ | G,C,>C, C, C,2 | C, C,2- C,/ z/ F,2 | .F,3 z G,2 | G,, C,2- C,3- | C,3 z3 |] %17

